Sources/FrostedUI/Resources/Icons.xcassets/xDotCom12.imageset/x-dot-com-12.svg

<svg width="12" height="12" viewBox="0 0 12 12" fill="none" xmlns="http://www.w3.org/2000/svg" data-fui-icon="true">
  <path
    d="M8.70165 1.75H10.1426L6.9945 5.3505L10.698 10.25H7.7982L5.527 7.2785L2.92819 10.25H1.48635L4.85355 6.39885L1.30078 1.75H4.2742L6.3272 4.46607L8.70165 1.75ZM8.1959 9.3869H8.99435L3.84034 2.56774H2.98351L8.1959 9.3869Z"
    fill="currentColor"
  />
</svg>

<svg xmlns="http://www.w3.org/2000/svg" width="12" height="12" fill="none" data-fui-icon="true" viewBox="0 0 12 12"><path fill="currentColor" d="M8.702 1.75h1.44l-3.147 3.6 3.703 4.9h-2.9L5.527 7.279 2.928 10.25H1.486l3.368-3.851L1.3 1.75h2.973l2.053 2.716zm-.506 7.637h.798L3.84 2.567h-.856z"/></svg>
